X: 24
T: Ely Court
M:4/4
R:reel
L:1/8
Z:Alf Warnock - alf0@rogers.com
K:Bb
d2|"Gm"B2AB "D"G2^F2|"Gm"G3A "F"BABc|"Bb"d2cB def2|"F"A6d2|
"Gm"B2AG "D"A2^F2|"Gm"G3A Bcd2|"Cm"e2dc d2g2|"D"^f6:|
d2|"Gm"g2ga b2f2|"Bb"d2cB f2B2|"F"A2d2 cBBA|"Eb"e6dc|
"Gm"d2g2 "D"a2^f2|"Gm"g2fe dcBA|"Bb"B2f2 "Cm"ABAG|"D"^F2D4F2|
"Gm"G2AB "F"c2F2|"F"c2f2 c2c/2d/2e|"Gm"d2g2 dcBA|"Eb"B2B/2c/2d "D"B2AG|"Gm"G6|]
